packages/foundations/icons/Education/JusticeScale.svg

<svg width="24" height="24" viewBox="0 0 24 24" fill="none" xmlns="http://www.w3.org/2000/svg">
<g clip-path="url(#clip0_1_10079)">
<path fill-rule="evenodd" clip-rule="evenodd" d="M20.0087 0.999788L20.0553 1.00147C20.0603 1.00174 20.0653 1.00205 20.0703 1.00239C20.0879 1.00344 20.1053 1.00514 20.1226 1.00728C20.1414 1.00951 20.1604 1.0123 20.1794 1.01563C20.1947 1.0188 20.2098 1.02193 20.2248 1.0254C20.4855 1.08275 20.7256 1.2436 20.8712 1.50718C20.8945 1.54994 20.9154 1.59407 20.9331 1.64013L20.9363 1.64888L23.9363 9.64888C24.1679 10.2663 23.7496 10.9227 23.1143 10.9937L23 11H17C16.3406 11 15.8729 10.378 16.0295 9.75811L16.0637 9.64888L18.3821 3.46576L12.9991 4.90176V19.9998L17 20C17.5523 20 18 20.4477 18 21V22H19C19.5523 22 20 22.4477 20 23V24H3.99999V23C3.99999 22.4477 4.4477 22 4.99999 22H5.99999V21C5.99999 20.4477 6.4477 20 6.99999 20L10.9991 19.9998V5.43476L6.32308 6.68176L8.93632 13.6489C9.16786 14.2663 8.74964 14.9227 8.11428 14.9937L7.99999 15H1.99999C1.34057 15 0.872865 14.378 1.02946 13.7581L1.06366 13.6489L4.06965 5.63326C4.07864 5.61031 4.08893 5.58687 4.10009 5.56387C4.23801 5.27362 4.48383 5.09583 4.75438 5.02955L10.9991 3.36376L11 2C11 1.44772 11.4477 1 12 1C12.5523 1 13 1.44772 13 2L12.9991 2.83076L19.7073 1.0423L19.7784 1.02396L19.8001 1.01976L19.7423 1.03377L19.8451 1.01176L19.8848 1.00653C19.9095 1.00364 19.9346 1.00176 19.9597 1.00079C19.9761 0.999923 19.9924 0.999655 20.0087 0.999788ZM4.99999 8.848L3.44299 13H6.55599L4.99999 8.848ZM20 4.848L18.443 9H21.556L20 4.848Z" fill="#3D474D"/>
</g>
<defs>
<clipPath id="clip0_1_10079">
<rect width="24" height="24" fill="white"/>
</clipPath>
</defs>
</svg>

<svg xmlns="http://www.w3.org/2000/svg" fill="none" viewBox="0 0 24 24" width="100%" height="100%">
  <g clip-path="url(#a)">
    <path fill="#3D474D" fill-rule="evenodd" d="m20.009 1 .046.001a1.077 1.077 0 0 1 .17.024.969.969 0 0 1 .708.615l.003.009 3 8a1 1 0 0 1-.822 1.345L23 11h-6a1 1 0 0 1-.97-1.242l.034-.11 2.318-6.182L13 4.902V20h4a1 1 0 0 1 1 1v1h1a1 1 0 0 1 1 1v1H4v-1a1 1 0 0 1 1-1h1v-1a1 1 0 0 1 1-1h4V5.435L6.322 6.682l2.613 6.967a1 1 0 0 1-.822 1.345L8 15H2a1 1 0 0 1-.97-1.242l.034-.11L4.07 5.634a.971.971 0 0 1 .685-.604l6.244-1.665L11 2a1 1 0 1 1 2 0v.83l6.707-1.788.071-.018.022-.004-.058.014.103-.022.04-.005A.967.967 0 0 1 20.009 1ZM5 8.848 3.443 13h3.113L5 8.848Zm15-4L18.443 9h3.113L20 4.848Z" clip-rule="evenodd"/>
  </g>
  <defs>
    <clipPath id="a">
      <path fill="#fff" d="M0 0h24v24H0z"/>
    </clipPath>
  </defs>
</svg>
